packages/blockchain-info-components/src/Images/img/banks/bank-logo-bbt.svg

<svg fill="none" height="32" viewBox="0 0 32 32" width="32" xmlns="http://www.w3.org/2000/svg"><path d="m23.5374 11.6449v2.511h.2672c.1069-1.2716.8461-2.0564 1.5935-2.0564l1.2555.0037v8.3183c.0616.7047-.5665.9661-1.3328.9608l.0029.2643h4.976l-.0013-.2668c-.7893-.0888-1.4384-.0686-1.4298-.823l.0025-8.4536h1.1642c.7478 0 1.6736.6434 1.6736 2.0527h.2911v-2.511zm-3.7004 1.4849c-.0041-.3832.2923-.8276.812-.8276.897 0 1.0656.9447.8423 1.4093-.3778.7872-.9184.9813-.9344.95-.3059-.5056-.7145-1.0627-.7199-1.5317zm-1.394 5.8056c-.6882-1.3044-.1788-2.2364.4904-2.8033 0 0 1.3176 2.6656 2.6957 4.044-.5361.4752-2.1596.7046-3.1861-1.2407zm-6.9863-2.2212h.5525c1.4397-.1225 1.961.9192 2.037 2.0049.0925 1.3082-.4312 2.4363-1.7533 2.4363-.592 0-.8354-.2138-.8354-.8815zm4.8416 3.1865c.4078.8325 1.4281 2.0707 3.1252 2.0987.934.0152 1.8027-.2344 2.8337-1.2103.3676.3214.8888.8575 1.6851.9036.2241.0131.9102-.1172 1.4706-.8268.4723-.5985.5693-1.0577.5825-1.0729l-.2454-.1838c-.1583.3256-.421.5669-.7507.5669-.6204 0-.6549-.2409-1.3789-.9649.7203-1.0569.6804-1.6012 1.0726-2.1599.398-.5669.7355-.8884 1.4093-.9118v-.2833h-2.4888v.252c.4974-.0374.5767.3548.5126.6825-.1299.6668-.8267 2.0279-.9188 1.9301-1.057-1.1182-2.3593-3.5536-2.3593-3.5536.9496-.5209 1.3328-1.6087 1.3328-1.8845 0-.9439-.4962-1.7382-1.8837-1.9145-.8432-.1073-2.4362.5973-2.4667 2.0678-.0139.666.398 1.3328.8272 2.16-1.1211.4415-2.0009 1.3122-2.3729 2.4411-.4391-1.0376-1.6469-1.4524-2.435-1.6645h.0317c.5915-.1928 2.3864-.5517 2.3096-2.2212-.1008-2.192-2.9049-2.5682-3.9035-2.5004h-4.35523v.2845c.64831.0444 1.28265-.125 1.28265.9538l.00246 7.4948c0 .9045-.49003.9151-1.27935 1.0039l-.0037.2586h4.53817c2.4518.0243 3.4825-.6742 3.8258-1.7459zm-16.2983 1.7459h4.53531c3.154-.1073 4.04239-1.1527 4.04239-2.7737 0-1.6909-1.4808-2.2093-2.45881-2.4728.54389-.1073 2.15994-.7507 2.13692-2.2779-.03289-2.1937-2.89952-2.5386-3.89851-2.4708h-4.35524447v.2849c.64831247.0444 1.28305447-.1258 1.28305447.9538l-.00287 7.4648c0 .9045-.492919.9443-1.28224 1.0331zm3.52235-4.9476h.55211c1.27484-.0317 2.014.6894 2.09828 1.9914.0851 1.3184-.45222 2.4201-1.81503 2.4358-.59158.007-.83536-.2138-.83536-.881zm.64749-4.514c1.40022.0946 1.76939 1.3037 1.77022 1.7489.00287 1.3406-.4181 2.3667-2.40785 2.3059v-4.0548c.01727 0 .48264-.0102.63763 0zm7.93556.005c1.4006.0945 1.7698 1.3036 1.7702 1.7488.0029 1.3406-.4185 2.3668-2.4078 2.3059v-4.0547c.0172 0 .4826-.0103.6376 0z" fill="#8a0025"/></svg>

<svg width="32" height="32" viewBox="0 0 32 32" fill="none" xmlns="http://www.w3.org/2000/svg">
<path d="M23.5374 11.6449V14.1559H23.8046C23.9115 12.8843 24.6507 12.0995 25.3981 12.0995L26.6536 12.1032V20.4215C26.7152 21.1262 26.0871 21.3876 25.3208 21.3823L25.3237 21.6466H30.2997L30.2984 21.3798C29.5091 21.291 28.86 21.3112 28.8686 20.5568L28.8711 12.1032H30.0353C30.7831 12.1032 31.7089 12.7466 31.7089 14.1559H32V11.6449H23.5374H23.5374ZM19.837 13.1298C19.8329 12.7466 20.1293 12.3022 20.649 12.3022C21.546 12.3022 21.7146 13.2469 21.4913 13.7115C21.1135 14.4987 20.5729 14.6928 20.5569 14.6615C20.251 14.1559 19.8424 13.5988 19.837 13.1298ZM18.443 18.9354C17.7548 17.631 18.2642 16.699 18.9334 16.1321C18.9334 16.1321 20.251 18.7977 21.6291 20.1761C21.093 20.6513 19.4695 20.8807 18.443 18.9354V18.9354ZM11.4567 16.7142H12.0092C13.4489 16.5917 13.9702 17.6334 14.0462 18.7191C14.1387 20.0273 13.615 21.1554 12.2929 21.1554C11.7009 21.1554 11.4575 20.9416 11.4575 20.2739L11.4567 16.7142H11.4567ZM16.2983 19.9007C16.7061 20.7332 17.7264 21.9714 19.4235 21.9994C20.3575 22.0146 21.2262 21.765 22.2572 20.7891C22.6248 21.1105 23.146 21.6466 23.9423 21.6927C24.1664 21.7058 24.8525 21.5755 25.4129 20.8659C25.8852 20.2674 25.9822 19.8082 25.9954 19.793L25.75 19.6092C25.5917 19.9348 25.329 20.1761 24.9993 20.1761C24.3789 20.1761 24.3444 19.9352 23.6204 19.2112C24.3407 18.1543 24.3008 17.61 24.693 17.0513C25.091 16.4844 25.4285 16.1629 26.1023 16.1395V15.8562H23.6135V16.1082C24.1109 16.0708 24.1902 16.463 24.1261 16.7907C23.9962 17.4575 23.2994 18.8186 23.2073 18.7208C22.1503 17.6026 20.848 15.1672 20.848 15.1672C21.7976 14.6463 22.1808 13.5585 22.1808 13.2827C22.1808 12.3388 21.6846 11.5445 20.2971 11.3682C19.4539 11.2609 17.8609 11.9655 17.8304 13.436C17.8165 14.102 18.2284 14.7688 18.6576 15.596C17.5365 16.0375 16.6567 16.9082 16.2847 18.0371C15.8456 16.9995 14.6378 16.5847 13.8497 16.3726H13.8814C14.4729 16.1798 16.2678 15.8209 16.191 14.1514C16.0902 11.9594 13.2861 11.5832 12.2875 11.651H7.93227V11.9355C8.58058 11.9799 9.21492 11.8105 9.21492 12.8893L9.21738 20.3841C9.21738 21.2886 8.72735 21.2992 7.93803 21.388L7.93433 21.6466H12.4725C14.9243 21.6709 15.955 20.9724 16.2983 19.9007H16.2983ZM0 21.6466H4.53531C7.68931 21.5393 8.5777 20.4939 8.5777 18.8729C8.5777 17.182 7.0969 16.6636 6.11889 16.4001C6.66278 16.2928 8.27883 15.6494 8.25581 14.1222C8.22292 11.9285 5.35629 11.5836 4.3573 11.6514H0.00205553V11.9363C0.650368 11.9807 1.28511 11.8105 1.28511 12.8901L1.28224 20.3549C1.28224 21.2594 0.789321 21.2992 0 21.388V21.6466V21.6466ZM3.52235 16.699H4.07446C5.3493 16.6673 6.08846 17.3884 6.17274 18.6904C6.25784 20.0088 5.72052 21.1105 4.35771 21.1262C3.76613 21.1332 3.52235 20.9124 3.52235 20.2452V16.699V16.699ZM4.16984 12.185C5.57006 12.2796 5.93923 13.4887 5.94006 13.9339C5.94293 15.2745 5.52196 16.3006 3.53221 16.2398V12.185C3.54948 12.185 4.01485 12.1748 4.16984 12.185V12.185ZM12.1054 12.19C13.506 12.2845 13.8752 13.4936 13.8756 13.9388C13.8785 15.2794 13.4571 16.3056 11.4678 16.2447V12.19C11.485 12.19 11.9504 12.1797 12.1054 12.19Z" fill="#8A0025"/>
</svg>
